public/tech.svg

<svg width="28" height="28" viewBox="0 0 28 28" fill="none" xmlns="http://www.w3.org/2000/svg">
<path d="M14 24.9783H6.93C2.88167 24.9783 1.19 22.085 3.15 18.55L6.79 11.9933L10.22 5.83335C12.2967 2.08835 15.7033 2.08835 17.78 5.83335L21.21 12.005L24.85 18.5617C26.81 22.0967 25.1067 24.99 21.07 24.99H14V24.9783Z" stroke="white" stroke-width="1.5" stroke-linecap="round" stroke-linejoin="round"/>
<path d="M25.0133 23.3333L14 15.6216L2.98666 23.3333" stroke="white" stroke-width="1.5" stroke-linecap="round" stroke-linejoin="round"/>
<path d="M14 3.5V15.6217" stroke="white" stroke-width="1.5" stroke-linecap="round" stroke-linejoin="round"/>
</svg>

<svg width="28" height="28" fill="none" xmlns="http://www.w3.org/2000/svg"><path d="M14 24.978H6.93c-4.048 0-5.74-2.893-3.78-6.428l3.64-6.557 3.43-6.16c2.077-3.745 5.483-3.745 7.56 0l3.43 6.172 3.64 6.557c1.96 3.535.257 6.428-3.78 6.428H14v-.012Z" stroke="#fff" stroke-width="1.5" stroke-linecap="round" stroke-linejoin="round"/><path d="M25.013 23.333 14 15.622 2.987 23.333M14 3.5v12.122" stroke="#fff" stroke-width="1.5" stroke-linecap="round" stroke-linejoin="round"/></svg>
